X: 30273
T: SPANISH WALTZ No. 2.
C:
%R: waltz
B: Elias Howe "The Musician's Companion" Part 3 1844 p.27 #3
S: http://imslp.org/wiki/The_Musician's_Companion_(Howe,_Elias)
S: https://archive.org/stream/firstthirdpartof03howe/#page/66/mode/1up
Z: 2016 John Chambers <jc:trillian.mit.edu>
M: 3/8
L: 1/16
K: C
% - - - - - - - - - - - - - - - - - - - - - - - - -
GG |\
e2c2 GG | e2c2 GG | edfdBd | ceg2 GG |\
e2c2 GG | e2c2 GG | edfdBd | c4 :|
|: g2 |\
agfedc | BcBcBc | BcBcBg | f4 GG |\
e2c2 GG | e2c2 GG | edfdBd | c4 :|
|: g |\
c'2c'c'c'c' | g2gggg | e2eeee | c6 |\
d2 de d2 | e2 ef e2 | d2dcde | c4 :|
% - - - - - - - - - - - - - - - - - - - - - - - - -


